X: 1
T: Marsch efter Stenberg, Lilleh\"ardal, H\"arjedalen
R: march
Z: 2014 John Chambers <jc:trillian.mit.edu>
S: Printed copy of unknown origin
M: 2/4
L: 1/16
K: G
(D2 ||\
B2)cB A2BA | .G2B2 {B}d3(c | B2)cB A2BA |1,3 .G2B2 D3D- :|2 G6 D2- :|4 G4- G2Bd ||
|: {f}g2g2 {g}a3f | .d2d2 d3(c | B2)cB A2BA |1,3 .G2B2 d3d :|2 G4 G2Bd :|4 G6 |]
